tests/e2e/lut/fixtures/contrast-boost-1d.cube
TITLE "Contrast Boost 1D"
LUT_1D_SIZE 256
# 1D LUT that applies an S-curve for contrast boost
# Input mapped through a simple sigmoid-like curve
0.000000
0.003922
0.007843
0.011765
0.015686
0.019608
0.023529
0.027451
0.031373
0.035294
0.039216
0.043137
0.047059
0.050980
0.054902
0.058824
0.062745
0.066667
0.070588
0.074510
0.078431
0.082353
0.086275
0.090196
0.094118
0.098039
0.101961
0.105882
0.109804
0.113725
0.117647
0.121569
0.125490
0.129412
0.133333
0.137255
0.141176
0.145098
0.149020
0.152941
0.156863
0.160784
0.164706
0.168627
0.172549
0.176471
0.180392
0.184314
0.188235
0.192157
0.196078
0.200000
0.207843
0.215686
0.223529
0.231373
0.239216
0.247059
0.254902
0.262745
0.270588
0.278431
0.286275
0.294118
0.301961
0.309804
0.317647
0.325490
0.333333
0.341176
0.349020
0.356863
0.364706
0.372549
0.380392
0.388235
0.396078
0.403922
0.411765
0.419608
0.427451
0.435294
0.443137
0.450980
0.458824
0.466667
0.474510
0.482353
0.490196
0.498039
0.505882
0.513725
0.521569
0.529412
0.537255
0.545098
0.552941
0.560784
0.568627
0.576471
0.584314
0.592157
0.600000
0.607843
0.615686
0.623529
0.631373
0.639216
0.647059
0.654902
0.662745
0.670588
0.678431
0.686275
0.694118
0.701961
0.709804
0.717647
0.725490
0.733333
0.741176
0.749020
0.756863
0.764706
0.772549
0.780392
0.788235
0.796078
0.803922
0.811765
0.819608
0.827451
0.835294
0.843137
0.850980
0.858824
0.866667
0.874510
0.882353
0.890196
0.898039
0.905882
0.913725
0.921569
0.929412
0.937255
0.945098
0.952941
0.960784
0.968627
0.976471
0.984314
0.992157
1.000000
0.000000
0.003922
0.007843
0.011765
0.015686
0.019608
0.023529
0.027451
0.031373
0.035294
0.039216
0.043137
0.047059
0.050980
0.054902
0.058824
0.062745
0.066667
0.070588
0.074510
0.078431
0.082353
0.086275
0.090196
0.094118
0.098039
0.101961
0.105882
0.109804
0.113725
0.117647
0.121569
0.125490
0.129412
0.133333
0.137255
0.141176
0.145098
0.149020
0.152941
0.156863
0.160784
0.164706
0.168627
0.172549
0.176471
0.180392
0.184314
0.188235
0.192157
0.196078
0.200000
0.207843
0.215686
0.223529
0.231373
0.239216
0.247059
0.254902
0.262745
0.270588
0.278431
0.286275
0.294118
0.301961
0.309804
0.317647
0.325490
0.333333
0.341176
0.349020
0.356863
0.364706
0.372549
0.380392
0.388235
0.396078
0.403922
0.411765
0.419608
0.427451
0.435294
0.443137
0.450980
0.458824
0.466667
0.474510
0.482353
0.490196
0.498039
0.505882
0.513725
0.521569
0.529412
0.537255
0.545098
0.552941
0.560784
0.568627
0.576471
0.584314
0.592157
0.600000
0.607843
0.615686
0.623529
0.631373
0.639216
0.647059
0.654902
0.662745
0.670588
0.678431
0.686275
0.694118
0.701961
0.709804
0.717647
0.725490
0.733333
0.741176
0.749020
0.756863
0.764706
0.772549
0.780392
0.788235
0.796078
0.803922
0.811765
0.819608
0.827451
0.835294
0.843137
0.850980
0.858824
0.866667
0.874510
0.882353
0.890196
0.898039
0.905882
0.913725
0.921569
0.929412
0.937255
0.945098
0.952941
0.960784
0.968627
0.976471
0.984314
0.992157
1.000000
0.000000
0.003922
0.007843
0.011765
0.015686
0.019608
0.023529
0.027451
0.031373
0.035294
0.039216
0.043137
0.047059
0.050980
0.054902
0.058824
0.062745
0.066667
0.070588
0.074510
0.078431
0.082353
0.086275
0.090196
0.094118
0.098039
0.101961
0.105882
0.109804
0.113725
0.117647
0.121569
0.125490
0.129412
0.133333
0.137255
0.141176
0.145098
0.149020
0.152941
0.156863
0.160784
0.164706
0.168627
0.172549
0.176471
0.180392
0.184314
0.188235
0.192157
0.196078
0.200000
0.207843
0.215686
0.223529
0.231373
0.239216
0.247059
0.254902
0.262745
0.270588
0.278431
0.286275
0.294118
0.301961
0.309804
0.317647
0.325490
0.333333
0.341176
0.349020
0.356863
0.364706
0.372549
0.380392
0.388235
0.396078
0.403922
0.411765
0.419608
0.427451
0.435294
0.443137
0.450980
0.458824
0.466667
0.474510
0.482353
0.490196
0.498039
0.505882
0.513725
0.521569
0.529412
0.537255
0.545098
0.552941
0.560784
0.568627
0.576471
0.584314
0.592157
0.600000
0.607843
0.615686
0.623529
0.631373
0.639216
0.647059
0.654902
0.662745
0.670588
0.678431
0.686275
0.694118
0.701961
0.709804
0.717647
0.725490
0.733333
0.741176
0.749020
0.756863
0.764706
0.772549
0.780392
0.788235
0.796078
0.803922
0.811765
0.819608
0.827451
0.835294
0.843137
0.850980
0.858824
0.866667
0.874510
0.882353
0.890196
0.898039
0.905882
0.913725
0.921569
0.929412
0.937255
0.945098
0.952941
0.960784
0.968627
0.976471
0.984314
0.992157
1.000000
