tests/e2e/lut/fixtures/cool-shift.cube
TITLE "Cool Shift"
DOMAIN_MIN 0 0 0
DOMAIN_MAX 1 1 1
LUT_3D_SIZE 3
# Cool color grading: boost blue, reduce red
# Input(R,G,B) -> Output(R-0.1, G, B+0.15)
0.00 0.00 0.15
0.40 0.00 0.15
0.90 0.00 0.15
0.00 0.50 0.15
0.40 0.50 0.15
0.90 0.50 0.15
0.00 1.00 0.15
0.40 1.00 0.15
0.90 1.00 0.15
0.00 0.00 0.65
0.40 0.00 0.65
0.90 0.00 0.65
0.00 0.50 0.65
0.40 0.50 0.65
0.90 0.50 0.65
0.00 1.00 0.65
0.40 1.00 0.65
0.90 1.00 0.65
0.00 0.00 1.00
0.40 0.00 1.00
0.90 0.00 1.00
0.00 0.50 1.00
0.40 0.50 1.00
0.90 0.50 1.00
0.00 1.00 1.00
0.40 1.00 1.00
0.90 1.00 1.00
