tests/e2e/lut/fixtures/warm-shift.cube
TITLE "Warm Shift"
DOMAIN_MIN 0 0 0
DOMAIN_MAX 1 1 1
LUT_3D_SIZE 3
# Warm color grading: boost red channel, reduce blue
# Input(R,G,B) -> Output(R+0.15, G, B-0.1)
0.00 0.00 0.00
0.58 0.00 0.00
1.00 0.00 0.00
0.00 0.50 0.00
0.58 0.50 0.00
1.00 0.50 0.00
0.00 1.00 0.00
0.58 1.00 0.00
1.00 1.00 0.00
0.00 0.00 0.40
0.58 0.00 0.40
1.00 0.00 0.40
0.00 0.50 0.40
0.58 0.50 0.40
1.00 0.50 0.40
0.00 1.00 0.40
0.58 1.00 0.40
1.00 1.00 0.40
0.00 0.00 0.90
0.58 0.00 0.90
1.00 0.00 0.90
0.00 0.50 0.90
0.58 0.50 0.90
1.00 0.50 0.90
0.00 1.00 0.90
0.58 1.00 0.90
1.00 1.00 0.90
