tests/e2e/lut/fixtures/warm-look.cube
TITLE "Warm Look Test"
DOMAIN_MIN 0.0 0.0 0.0
DOMAIN_MAX 1.0 1.0 1.0
LUT_3D_SIZE 3
0.000000 0.000000 0.000000
0.000000 0.000000 0.080000
0.000000 0.000000 0.160000
0.090000 0.000000 0.000000
0.090000 0.000000 0.080000
0.090000 0.000000 0.160000
0.180000 0.000000 0.000000
0.180000 0.000000 0.080000
0.180000 0.000000 0.160000
0.000000 0.090000 0.000000
0.000000 0.090000 0.080000
0.000000 0.090000 0.160000
0.090000 0.090000 0.000000
0.090000 0.090000 0.080000
0.090000 0.090000 0.160000
0.180000 0.090000 0.000000
0.180000 0.090000 0.080000
0.180000 0.090000 0.160000
0.000000 0.180000 0.000000
0.000000 0.180000 0.080000
0.000000 0.180000 0.160000
0.090000 0.180000 0.000000
0.090000 0.180000 0.080000
0.090000 0.180000 0.160000
0.180000 0.180000 0.000000
0.180000 0.180000 0.080000
0.180000 0.180000 0.160000
